icon-themes/breeze_svg/cmd/sc_linearrows.svg

<svg viewBox="0 0 16 16" xmlns="http://www.w3.org/2000/svg">/&gt;<path d="m4 6-2 1.5 2 1.5v-.75-.25h7 1v.25.75l2-1.5-2-1.5v.75.25h-1-7v-.25z" fill="#4d4d4d"/></svg>

<svg xmlns="http://www.w3.org/2000/svg" viewBox="0 0 16 16">
     />
 <path 
     style="fill:#4d4d4d" 
     d="M 4 6 L 2 7.5 L 4 9 L 4 8.25 L 4 8 L 11 8 L 12 8 L 12 8.25 L 12 9 L 14 7.5 L 12 6 L 12 6.75 L 12 7 L 11 7 L 4 7 L 4 6.75 L 4 6 z "
     />
 </svg>
